!!!OTL: Frau Luddelei
!!!ARE: Europa, Mitteleuropa, Deutschland
!!!SCT: A0466
!!!YEM: Copyright 1995, estate of Helmut Schaffrath.
**kern
*ICvox
*Ivox
*M4/2
*k[b-]
*F:
{2f
=1
2cc
2cc
2cc
2f
=2
2.cc
4cc
2cc}
{2cc
=3
2dd
2cc
2cc
2b-
=4
1cc
2a}
{2f
=5
2cc
2cc
2cc
2f
=6
2.cc
4cc
2cc}
{2cc
=7
2dd
2cc
2cc
2b-
=8
1cc
2a
2r}
=9
{1a
2a
2a
=10
2g
2g
1f}
=11
{2a
2a
4a
4a
2a
=12
2g
2g
1f}
=13
{2a
2f
2g
2g
=14
1.f}
==
!!!AGN: Romanze, Ballade, Lied
!! Forster II 1540 No. 19.
!!!ONB: ESAC (Essen Associative Code) Database: ALTDEU
!!!AMT: simple quadruple
!!!AIN: vox
!!!EED: Helmut Schaffrath
!!!EEV: 1.0
*-
